svg/u1f343.svg

<svg viewBox="0 0 128 128" xmlns="http://www.w3.org/2000/svg">
  <path d="M100.7,71.48c-1.71-0.43-4.23,4.62-13.38,4.33s-26.94-6.45-40.22,4.91 c-12.71,10.87-6.06,23.96-8.76,25.12c-2.69,1.15-6.25,0-7.6-0.96c-1.35-0.96-4.04-2.6-4.52-2.6s-3.37,1.92-3.18,4.62 c0.19,2.69,2.12,3.66,2.69,3.85c0.58,0.19,4.23-1.25,7.89-0.48c3.66,0.77,5.68,1.83,6.35,2.5c0.67,0.67,9.33,11.55,23.67,11.07 c14.34-0.48,27.04-8.76,33.58-25.02C103.26,83.83,102.24,71.86,100.7,71.48z" fill="#8BC12D"/>
  <path d="M76.47,90.21c-6.4,2.06-13.9,3.1-19.22,5.94c-5.3,2.83-11.71,8.05-8.96,10.66 c2.77,2.63,7.28-5.37,17.23-8.55c9.96-3.18,14.06-4.73,17.59-7.06c3.53-2.33,6.99-7.2,6-7.77C87.99,82.78,84.81,87.52,76.47,90.21z" fill="#599724"/>
  <path d="M91.54,40.46c-0.06-0.03-1.29-1.2-3.54-2.46c-2.7-1.52-6.42-2.95-11.34-3.84 c-6.81-1.23-15.6-1.53-23.52,5.33c-7.93,6.86-7.61,17.12-3.94,23.6c2.59,4.57,7.42,9.45,6.64,10.15c-1.15,1.04-7.16-1.52-11.51-6.99 c-4.43-5.56-9.55-18.79,0.82-30.41c8.9-9.98,23.02-10.32,31.41-8.88c12.53,2.15,19.66,8.8,19.66,8.8S91.56,40.47,91.54,40.46z" fill="#B1E4FE"/>
  <radialGradient id="SVGID_1_" cx="33.4374" cy="27.6523" gradientUnits="userSpaceOnUse" r="60.8119">
    <stop offset="0.3666" stop-color="#D9F3FB"/>
    <stop offset="0.5583" stop-color="#D4F1FB"/>
    <stop offset="0.7812" stop-color="#C6ECFC"/>
    <stop offset="1" stop-color="#B1E4FE"/>
  </radialGradient>
  <path d="M95.4,35.04c5.91,3.79,10.7,10.26,8.81,17.76c-2.65,10.54-27.17,6.72-33.65,5 c-6.48-1.72-34.12-8.82-34.51-31.62C35.65,3.38,68.64,2.18,68.13,4.47C67.66,6.58,49.93,7.2,47.36,18.53s7.5,17.41,14.76,21.55 s21.39,6.95,26.94,7.11c3.12,0.09,4.88-0.74,5.06-2.2c0.14-1.14-0.33-2.41-2.62-4.56L95.4,35.04z" fill="url(#SVGID_1_)"/>
  <path d="M91.54,38.62l-4.29-8.39c0,0,2.46,0.92,6.73,3.6c1.96,1.23,3.73,2.87,3.73,2.87L91.54,38.62z" fill="#B1E4FE"/>
</svg>

<svg viewBox="0 0 128 128" xmlns="http://www.w3.org/2000/svg">
  <defs>
    <radialGradient id="SVGID_1_" cx="33.4374" cy="27.6523" gradientUnits="userSpaceOnUse" r="60.8119">
      <stop offset="0.3666" stop-color="#D9F3FB"/>
      <stop offset="0.5583" stop-color="#D4F1FB"/>
      <stop offset="0.7812" stop-color="#C6ECFC"/>
      <stop offset="1" stop-color="#B1E4FE"/>
    </radialGradient>
  </defs>
  <path d="M100.7,71.48 C98.99,71.05 96.47,76.1 87.32,75.81 C78.17,75.52 60.38,69.36 47.1,80.72 C34.39,91.59 41.04,104.68 38.34,105.84 C35.65,106.99 32.09,105.84 30.74,104.88 C29.39,103.92 26.7,102.28 26.22,102.28 C25.74,102.28 22.85,104.2 23.04,106.9 C23.23,109.59 25.16,110.56 25.73,110.75 C26.31,110.94 29.96,109.5 33.62,110.27 C37.28,111.04 39.3,112.1 39.97,112.77 C40.64,113.44 49.3,124.32 63.64,123.84 C77.98,123.36 90.68,115.08 97.22,98.82 C103.26,83.83 102.24,71.86 100.7,71.48 Z" fill="#8BC12D"/>
  <path d="M76.47,90.21 C70.07,92.27 62.57,93.31 57.25,96.15 C51.95,98.98 45.54,104.2 48.29,106.81 C51.06,109.44 55.57,101.44 65.52,98.26 C75.48,95.08 79.58,93.53 83.11,91.2 C86.64,88.87 90.1,84 89.11,83.43 C87.99,82.78 84.81,87.52 76.47,90.21 Z" fill="#599724"/>
  <path d="M91.54,40.46 C91.48,40.43 90.25,39.26 88,38 C85.3,36.48 81.58,35.05 76.66,34.16 C69.85,32.93 61.06,32.63 53.14,39.49 C45.21,46.35 45.53,56.61 49.2,63.09 C51.79,67.66 56.62,72.54 55.84,73.24 C54.69,74.28 48.68,71.72 44.33,66.25 C39.9,60.69 34.78,47.46 45.15,35.84 C54.05,25.86 68.17,25.52 76.56,26.96 C89.09,29.11 96.22,35.76 96.22,35.76 C96.22,35.76 91.56,40.47 91.54,40.46 Z" fill="#B1E4FE"/>
  <path d="M95.4,35.04 C101.31,38.83 106.1,45.3 104.21,52.8 C101.56,63.34 77.04,59.52 70.56,57.8 C64.08,56.08 36.44,48.98 36.05,26.18 C35.65,3.38 68.64,2.18 68.13,4.47 C67.66,6.58 49.93,7.2 47.36,18.53 C44.79,29.86 54.86,35.94 62.12,40.08 C69.38,44.22 83.51,47.03 89.06,47.19 C92.18,47.28 93.94,46.45 94.12,44.99 C94.26,43.85 93.79,42.58 91.5,40.43 L95.4,35.04 Z" fill="url(#SVGID_1_)"/>
  <path d="M91.54,38.62 L87.25,30.23 C87.25,30.23 89.71,31.15 93.98,33.83 C95.94,35.06 97.71,36.7 97.71,36.7 L91.54,38.62 Z" fill="#B1E4FE"/>
</svg>
